X:5
T: Dan Collins' Father's Jig
S: De Danann
Z: B.Black
R: jig
M: 6/8
L: 1/8
K: D
A | ded BAB | def a2 a | baf ede | fdB BAB |
ded BAB | def a2 a | baf ede | fdc d2 :|
e | faa faa | afe f2 f | aba f2 e | dBA BAB |
ded BAB | def a2 a | baf ede | fdc d2 :|
